X: 1
T: Dirt On The Floor
M: 4/4
L: 1/8
R: hornpipe
K: Bmin
|:dc|(3BcB FB DFBd | (3cBA ef edcB |(3BcB FB DFBd | (3cBA [F2A2]-[E2A2]EA |
(3BcB FB DFBd | (3cBA ef edcB | Aceg fedc |B2 [G2B2]-[F2B2] :|
|:de | fgfe dedc |dcBd cBA2 | fgfe dcde |fBBA B2de |
fgfe dedc | dcBd cBAG | FGBc defg | f2 d2 B2 :|
